assets/img/utility-category-ico.svg

<svg width="100" height="100" viewBox="0 0 100 100" fill="none" xmlns="http://www.w3.org/2000/svg">
<path d="M84.375 50V68.75" stroke="white" stroke-width="3" stroke-linecap="round" stroke-linejoin="round"/>
<path d="M75 59.375H93.75" stroke="white" stroke-width="3" stroke-linecap="round" stroke-linejoin="round"/>
<path d="M32.8125 15.625V31.25" stroke="white" stroke-width="3" stroke-linecap="round" stroke-linejoin="round"/>
<path d="M25 23.4375H40.625" stroke="white" stroke-width="3" stroke-linecap="round" stroke-linejoin="round"/>
<path d="M65.625 71.875V84.375" stroke="white" stroke-width="3" stroke-linecap="round" stroke-linejoin="round"/>
<path d="M59.375 78.125H71.875" stroke="white" stroke-width="3" stroke-linecap="round" stroke-linejoin="round"/>
<path d="M72.8218 14.6995L14.7341 72.7872C13.5137 74.0076 13.5137 75.9863 14.7341 77.2067L22.8134 85.2859C24.0338 86.5063 26.0124 86.5063 27.2328 85.2859L85.3205 27.1982C86.5409 25.9778 86.5409 23.9992 85.3205 22.7788L77.2413 14.6995C76.0209 13.4791 74.0422 13.4791 72.8218 14.6995Z" stroke="white" stroke-width="3" stroke-linecap="round" stroke-linejoin="round"/>
<path d="M56.25 31.25L68.75 43.75" stroke="white" stroke-width="3" stroke-linecap="round" stroke-linejoin="round"/>
</svg>

<svg xmlns="http://www.w3.org/2000/svg" width="100" height="100" fill="none"><path stroke="#fff" stroke-linecap="round" stroke-linejoin="round" stroke-width="3" d="M84.375 50v18.75M75 59.375h18.75M32.813 15.625V31.25M25 23.438h15.625M65.625 71.875v12.5M59.375 78.125h12.5M72.822 14.7 14.734 72.787a3.125 3.125 0 0 0 0 4.42l8.08 8.079a3.125 3.125 0 0 0 4.419 0L85.32 27.198a3.125 3.125 0 0 0 0-4.42L77.242 14.7a3.125 3.125 0 0 0-4.42 0ZM56.25 31.25l12.5 12.5"/></svg>
